X:183
T:Reel 183
M:4/4
K:Dmaj
L:1/8
AG|FEDd  (3Bcd AF|GBAF E2EG|FEFG ABcA|GEeF G2AG|FEDE  (3FGA Bc|dBcA BGAF|GEcA GECE|FDEC D2|FG|Adde fdec|ABAe d2AG|Adde fded|dcAF G2FG|Adde fdec|ABAG FDDz|Adec dced|cAGE D2|
